images/logo.svg

<svg
  xmlns="http://www.w3.org/2000/svg"
>
  <symbol id="logo">
    <path
      fill="currentColor"
      d="M6.14003 5.73978 10.2464 18.6097h.1565l4.1063-12.86992h6.1401L14.0399 23.993H6.60933L0 5.73978h6.14003ZM22.5778 23.993V5.73978h14.431v3.99289h-8.9949v3.13723h8.2519v3.9929h-8.2519v3.1373h8.9558v3.9929H22.5778Zm4.1846-19.85751c-.6648 0-1.2286-.20202-1.6914-.60606-.4628-.40404-.6942-.89127-.6942-1.46168 0-.57042.2314-1.05764.6942-1.461686C25.5338.202021 26.0976 0 26.7624 0c.6453 0 1.1961.202021 1.6524.606064.4627.404046.6941.891266.6941 1.461686 0 .57041-.2314 1.05764-.6941 1.46168-.4563.40404-1.0071.60606-1.6524.60606Zm6.2183 0c-.6649 0-1.2287-.20202-1.6915-.60606-.4628-.40404-.6942-.89127-.6942-1.46168 0-.57042.2314-1.05764.6942-1.461686C31.752.202021 32.3158 0 32.9807 0c.6453 0 1.196.202021 1.6523.606064.4628.404046.6942.891266.6942 1.461686 0 .57041-.2314 1.05764-.6942 1.46168-.4563.40404-1.007.60606-1.6523.60606ZM39.7049 23.993V5.73978h8.643c1.4861 0 2.7864.24658 3.901.73975 1.1146.49317 1.9815 1.20322 2.6007 2.13014.6192.92692.9289 2.03803.9289 3.33333 0 1.3072-.3194 2.4094-.9582 3.3066-.6323.8972-1.522 1.5746-2.6692 2.0321-1.1406.4575-2.4736.6863-3.9988.6863H42.99v-3.8503h4.0673c.6387 0 1.183-.0713 1.6327-.2139.4563-.1485.805-.3832 1.0462-.7041.2477-.3208.3715-.7397.3715-1.2567 0-.5229-.1238-.9477-.3715-1.2745-.2412-.3327-.5899-.5764-1.0462-.73084-.4497-.16043-.994-.24064-1.6327-.24064H45.141V23.993h-5.4361Zm11.7325-8.3779 5.0059 8.3779h-5.9054l-4.8885-8.3779h5.788ZM68.8896 11.4439c-.0522-.5942-.2966-1.0576-.7333-1.3904-.4302-.33271-1.0853-.49909-1.9652-.49909-.5606 0-1.0201.06239-1.3786.18717-.352.11884-.6127.28222-.7822.49022-.1694.2079-.2574.4456-.2639.713-.0131.2198.0293.4189.1271.5971.1043.1724.2672.3298.4888.4724.2216.1367.5052.2615.8506.3744.3455.1128.7561.2139 1.2319.303l1.6426.3208c1.1081.2139 2.0565.4962 2.8451.8468.7887.3505 1.434.7635 1.9359 1.2388.5019.4694.8702.9982 1.1048 1.5865.2412.5882.365 1.2299.3716 1.9251-.0066 1.2003-.3357 2.2163-.9875 3.0482-.6518.8318-1.5839 1.4646-2.7963 1.8984-1.2058.4337-2.6561.6506-4.3508.6506-1.7403 0-3.259-.2347-4.5561-.7041-1.2906-.4694-2.2944-1.1913-3.0114-2.1658-.7105-.9804-1.069-2.2341-1.0755-3.7612h5.1623c.0326.5586.1858 1.028.4596 1.4083.2737.3802.6583.6684 1.1537.8645.5019.1961 1.0983.2941 1.7892.2941.5801 0 1.0657-.0654 1.4568-.1961.3911-.1307.6876-.3119.8897-.5436.2021-.2318.3063-.4962.3129-.7933-.0066-.2792-.1076-.5229-.3031-.7308-.1891-.2139-.5019-.4041-.9386-.5704-.4368-.1723-1.0266-.3328-1.7697-.4813l-1.9945-.3922c-1.7729-.3505-3.1711-.9358-4.1944-1.7558-1.0168-.8259-1.522-1.9519-1.5155-3.3779-.0065-1.1586.3325-2.17172 1.0169-3.03923.6909-.87344 1.6458-1.55378 2.8646-2.041 1.2254-.48723 2.6301-.73085 4.214-.73085 1.6165 0 3.0146.24659 4.1944.73976 1.1797.49317 2.089 1.18836 2.7278 2.08557.6453.89127.9712 1.93405.9777 3.12835h-5.2014ZM75.8851 9.73267V5.73978h17.4033v3.99289h-6.0227V23.993h-5.3579V9.73267h-6.0227ZM95.3342 23.993V5.73978h5.4358v7.37972h.274l6.023-7.37972h6.335l-6.765 8.12842 6.922 10.1248h-6.492l-4.498-6.845-1.799 2.1391v4.7059h-5.4358ZM120.217 23.993h-5.866l6.609-18.25322h7.431L135 23.993h-5.866l-4.38-13.2265h-.157l-4.38 13.2265Zm-1.095-7.2015h11.029v3.7077h-11.029v-3.7077Z"
    />
  </symbol>
</svg>

<svg width="135" height="25" viewBox="0 0 135 25" fill="none" xmlns="http://www.w3.org/2000/svg">
<path d="M6.14003 5.73978L10.2464 18.6097H10.4029L14.5092 5.73978H20.6493L14.0399 23.993H6.60933L0 5.73978H6.14003Z" fill="#312A4E"/>
<path d="M22.5778 23.993V5.73978H37.0088V9.73267H28.0139V12.8699H36.2658V16.8628H28.0139V20.0001H36.9697V23.993H22.5778ZM26.7624 4.13549C26.0976 4.13549 25.5338 3.93347 25.071 3.52943C24.6082 3.12539 24.3768 2.63816 24.3768 2.06775C24.3768 1.49733 24.6082 1.01011 25.071 0.606064C25.5338 0.202021 26.0976 0 26.7624 0C27.4077 0 27.9585 0.202021 28.4148 0.606064C28.8775 1.01011 29.1089 1.49733 29.1089 2.06775C29.1089 2.63816 28.8775 3.12539 28.4148 3.52943C27.9585 3.93347 27.4077 4.13549 26.7624 4.13549ZM32.9807 4.13549C32.3158 4.13549 31.752 3.93347 31.2892 3.52943C30.8264 3.12539 30.595 2.63816 30.595 2.06775C30.595 1.49733 30.8264 1.01011 31.2892 0.606064C31.752 0.202021 32.3158 0 32.9807 0C33.626 0 34.1767 0.202021 34.633 0.606064C35.0958 1.01011 35.3272 1.49733 35.3272 2.06775C35.3272 2.63816 35.0958 3.12539 34.633 3.52943C34.1767 3.93347 33.626 4.13549 32.9807 4.13549Z" fill="#312A4E"/>
<path d="M39.7049 23.993V5.73978H48.3479C49.834 5.73978 51.1343 5.98636 52.2489 6.47953C53.3635 6.9727 54.2304 7.68275 54.8496 8.60967C55.4688 9.53659 55.7785 10.6477 55.7785 11.943C55.7785 13.2502 55.4591 14.3524 54.8203 15.2496C54.188 16.1468 53.2983 16.8242 52.1511 17.2817C51.0105 17.7392 49.6775 17.968 48.1523 17.968H42.99V14.1177H47.0573C47.696 14.1177 48.2403 14.0464 48.69 13.9038C49.1463 13.7553 49.495 13.5206 49.7362 13.1997C49.9839 12.8789 50.1077 12.46 50.1077 11.943C50.1077 11.4201 49.9839 10.9953 49.7362 10.6685C49.495 10.3358 49.1463 10.0921 48.69 9.93766C48.2403 9.77723 47.696 9.69702 47.0573 9.69702H45.141V23.993H39.7049ZM51.4374 15.6151L56.4433 23.993H50.5379L45.6494 15.6151H51.4374Z" fill="#312A4E"/>
<path d="M68.8896 11.4439C68.8374 10.8497 68.593 10.3863 68.1563 10.0535C67.7261 9.72079 67.071 9.55441 66.1911 9.55441C65.6305 9.55441 65.171 9.6168 64.8125 9.74158C64.4605 9.86042 64.1998 10.0238 64.0303 10.2318C63.8609 10.4397 63.7729 10.6774 63.7664 10.9448C63.7533 11.1646 63.7957 11.3637 63.8935 11.5419C63.9978 11.7143 64.1607 11.8717 64.3823 12.0143C64.6039 12.151 64.8875 12.2758 65.2329 12.3887C65.5784 12.5015 65.989 12.6026 66.4648 12.6917L68.1074 13.0125C69.2155 13.2264 70.1639 13.5087 70.9525 13.8593C71.7412 14.2098 72.3865 14.6228 72.8884 15.0981C73.3903 15.5675 73.7586 16.0963 73.9932 16.6846C74.2344 17.2728 74.3582 17.9145 74.3648 18.6097C74.3582 19.81 74.0291 20.826 73.3773 21.6579C72.7255 22.4897 71.7934 23.1225 70.581 23.5563C69.3752 23.99 67.9249 24.2069 66.2302 24.2069C64.4899 24.2069 62.9712 23.9722 61.6741 23.5028C60.3835 23.0334 59.3797 22.3115 58.6627 21.337C57.9522 20.3566 57.5937 19.1029 57.5872 17.5758H62.7495C62.7821 18.1344 62.9353 18.6038 63.2091 18.9841C63.4828 19.3643 63.8674 19.6525 64.3628 19.8486C64.8647 20.0447 65.4611 20.1427 66.152 20.1427C66.7321 20.1427 67.2177 20.0773 67.6088 19.9466C67.9999 19.8159 68.2964 19.6347 68.4985 19.403C68.7006 19.1712 68.8048 18.9068 68.8114 18.6097C68.8048 18.3305 68.7038 18.0868 68.5083 17.8789C68.3192 17.665 68.0064 17.4748 67.5697 17.3085C67.1329 17.1362 66.5431 16.9757 65.8 16.8272L63.8055 16.435C62.0326 16.0845 60.6344 15.4992 59.6111 14.6792C58.5943 13.8533 58.0891 12.7273 58.0956 11.3013C58.0891 10.1427 58.4281 9.12958 59.1125 8.26207C59.8034 7.38863 60.7583 6.70829 61.9771 6.22107C63.2025 5.73384 64.6072 5.49022 66.1911 5.49022C67.8076 5.49022 69.2057 5.73681 70.3855 6.22998C71.5652 6.72315 72.4745 7.41834 73.1133 8.31555C73.7586 9.20682 74.0845 10.2496 74.091 11.4439H68.8896Z" fill="#312A4E"/>
<path d="M75.8851 9.73267V5.73978H93.2884V9.73267H87.2657V23.993H81.9078V9.73267H75.8851Z" fill="#312A4E"/>
<path d="M95.3342 23.993V5.73978H100.77V13.1195H101.044L107.067 5.73978H113.402L106.637 13.8682L113.559 23.993H107.067L102.569 17.148L100.77 19.2871V23.993H95.3342Z" fill="#312A4E"/>
<path d="M120.217 23.993H114.351L120.96 5.73978H128.391L135 23.993H129.134L124.754 10.7665H124.597L120.217 23.993ZM119.122 16.7915H130.151V20.4992H119.122V16.7915Z" fill="#312A4E"/>
</svg>
